priv/static/svgs/icons_new/text-math.svg

<svg width="32" height="32" viewBox="0 0 32 32" fill="none" xmlns="http://www.w3.org/2000/svg">
<path d="M25 10.0184H19.4615M25 21.9814H19.4615M13.9231 10.0184H7.00006M10.4614 6.5L10.4614 13.537M13.2308 24.7963L7.69235 19.1667M13.2308 19.1666L7.69235 24.7962M22.7307 19.1666C22.7307 19.4428 22.5069 19.6666 22.2307 19.6666C21.9546 19.6666 21.7307 19.4428 21.7307 19.1666C21.7307 18.8905 21.9546 18.6666 22.2307 18.6666C22.5069 18.6666 22.7307 18.8905 22.7307 19.1666ZM22.7307 24.7963C22.7307 25.0724 22.5069 25.2963 22.2307 25.2963C21.9546 25.2963 21.7307 25.0724 21.7307 24.7963C21.7307 24.5201 21.9546 24.2963 22.2307 24.2963C22.5069 24.2963 22.7307 24.5201 22.7307 24.7963Z" stroke="black" stroke-linecap="round"/>
</svg>

<svg width="32" height="32" viewBox="0 0 32 32" fill="none" xmlns="http://www.w3.org/2000/svg">
  <symbol id="item" viewBox="0 0 32 32" stroke-width="1" fill="none">
    <path d="M25 10.018h-5.538M25 21.981h-5.538m-5.539-11.963H7M10.461 6.5v7.037m2.77 11.26-5.539-5.63m5.539 0-5.539 5.63m15.039-5.63a.5.5 0 1 1-1 0 .5.5 0 0 1 1 0Zm0 5.63a.5.5 0 1 1-1 0 .5.5 0 0 1 1 0Z" stroke="currentColor" stroke-linecap="round"/>
  </symbol>
</svg>
